!!!COM: Arthur Honegger
!!!OTL: [T598_Hon-w37p2-3m2-1h1m1-5]
**kern	**kern	**dynam	**kern	**dynam	**kern	**dynam	**kern	**dynam	**kern	**dynam	**kern	**kern	**kern	**kern	**kern	**kern	**kern	**kern	**kern	**kern	**kern	**kern	**kern	**kern	**kern
*part20	*part19	*part19	*part18	*part18	*part17	*part17	*part16	*part16	*part15	*part15	*part14	*part13	*part13	*part12	*part11	*part10	*part9	*part8	*part7	*part6	*part5	*part4	*part3	*part2	*part1
*staff21	*staff20	*	*staff19	*	*staff18	*	*staff17	*	*staff16	*	*staff15	*staff14	*staff13	*staff12	*staff11	*staff10	*staff9	*staff8	*staff7	*staff6	*staff5	*staff4	*staff3	*staff2	*staff1
*I"Contrabass	*I"Violoncello	*	*I"Viola	*	*I"Violin II	*	*I"Violin I	*	*I"Bass Drum	*	*I"Cymbals	*I"Piano	*	*I"Tuba	*I"Trombone	*I"Trumpet in Bb 2. 3.	*I"Trumpet in Bb 1.	*I"Horn in F 1. 3.	*I"Bassoons	*I"Bass Clarinet in Bb	*I"Clarinet in Bb	*I"English Horn	*I"Oboes	*I"Flute 3.	*I"Flute 1. 2.
*I'Cb.	*I'Vc.	*	*I'Vla.	*	*I'Vln. II	*	*I'Vln. I	*	*I'B. D.	*	*I'Cym.	*I'Pno.	*	*I'Tba.	*I'Tbn.	*I'Tpt.1	*I'Tpt.	*I'Hn. 1. 3.	*I'Bsns.	*I'B. Cl.	*I'Cl.	*I'E.H.	*I'Ob.	*I'Fl. 3.	*I'Fl. 1. 2.
!!pagebreak:original
*	*	*	*	*	*	*	*	*	*stria1	*	*stria1	*	*	*	*	*	*	*	*	*	*	*	*	*	*
*clefF4	*clefF4	*	*clefG2	*	*clefG2	*	*clefG2	*	*clefX	*	*clefX	*clefF4	*clefG2	*clefF4	*clefF4	*clefG2	*clefG2	*clefG2	*clefF4	*clefF4	*clefG2	*clefG2	*clefG2	*clefG2	*clefG2
*ITrd0c0	*	*	*	*	*	*	*	*	*	*	*	*	*	*	*	*ITrd1c2	*ITrd1c2	*ITrd4c7	*	*ITrd1c2	*ITrd1c2	*ITrd4c7	*	*	*
*k[]	*k[]	*	*k[]	*	*k[]	*	*k[]	*	*k[]	*	*k[]	*k[]	*k[]	*k[]	*k[]	*k[b-e-]	*k[b-e-]	*k[b-]	*k[]	*k[b-e-]	*k[b-e-]	*k[b-]	*k[]	*k[]	*k[]
*	*	*	*	*	*	*	*	*	*C:	*	*C:	*	*	*	*	*	*	*	*	*	*	*	*	*	*
*M4/4	*M4/4	*	*M4/4	*	*M4/4	*	*M4/4	*	*M4/4	*	*M4/4	*M4/4	*M4/4	*M4/4	*M4/4	*M4/4	*M4/4	*M4/4	*M4/4	*M4/4	*M4/4	*M4/4	*M4/4	*M4/4	*M4/4
*	*	*	*	*	*	*	*	*	*	*	*	*	*8va	*	*	*	*	*	*	*	*	*	*	*	*
=1	=1	=1	=1	=1	=1	=1	=1	=1	=1	=1	=1	=1	=1	=1	=1	=1	=1	=1	=1	=1	=1	=1	=1	=1	=1
*^	*	*	*	*	*	*	*	*	*	*	*	*^	*	*	*	*	*	*	*	*	*	*	*	*	*
!	!	!	!	!	!	!	!	!	!	!	!	!LO:TX:t=[half]=78	!	!	!	!	!	!	!	!	!	!	!	!	!LO:TX:b:t=[f]	!	!LO:TX:t=[half]=78
!LO:TX:b:t=[f]	!	!LO:TX:b:t=[f]	!	!LO:TX:b:t=[f]	!	!LO:TX:b:t=[f]	!	!LO:TX:b:t=[f]	!	!	!	!LO:TX:b:t=[f]	!	!	!LO:TX:b:t=[f]	!LO:TX:b:t=[f]	!LO:TX:b:t=[f]	!LO:TX:b:t=[f]	!LO:TX:b:t=[f]	!	!	!	!LO:TX:b:t=[f]	!LO:TX:b:t=[f]	!LO:TX:a:t=1o	!LO:TX:b:t=[f]	!LO:TX:b:t=[f]
4CC	2ryy	8G-X	.	8dddn	.	8ddd#X	.	8fff#X	.	8Re/	f	8Re/	2r	2ryy	[4ddddn [4eeee-X [4gggg-X	2r	2r	8.ddL 8.ee-	8.gg-XL	1r	1r	1r	8.dddL 8.eee-	8ee-X	1eet	2.eeent	8.ggg-XL
.	.	8r	.	8r	.	8r	.	8r	.	8r	.	8r	.	.	.	.	.	.	.	.	.	.	.	8r	.	.	.
.	.	.	.	.	.	.	.	.	.	.	.	.	.	.	.	.	.	16ddJk 16ee-	16gg-Jk	.	.	.	16dddJk 16eee-	.	.	.	16ggg-Jk
*	*	*	*	*	*	*	*	*	*	*	*	*	*	*	*X8va	*	*	*	*	*	*	*	*	*	*	*	*
!LO:TX:a:t=Div.	!	!	!	!	!	!	!	!	!	!	!	!	!	!	!	!	!	!	!	!	!	!	!	!	!	!	!
4r	.	4r	.	4r	.	4r	.	4r	.	4r	.	4r	.	.	4r	.	.	[4dd [4ee-	[4gg-	.	.	.	[4ddd [4eee-	4r	.	.	[4ggg-
4B-Xu 4e-X	4C 4G-X	2r	.	2r	.	2r	.	2r	.	2r	.	2r	4BB-X 4E-X	4CC 4GG-X	2r	4CC	4GG-X 4BB-X 4E-X	8dd] 8ee-]	8gg-]	.	.	.	8dddL] 8eee-]	2r	.	.	8ggg-L]
.	.	.	.	.	.	.	.	.	.	.	.	.	.	.	.	.	.	8r	8r	.	.	.	8ddd 8eee-	.	.	.	8ggg-
4r	4ryy	.	.	.	.	.	.	.	.	.	.	.	4r	4ryy	.	4r	4r	16ddKL 16ee-	16gg-KL	.	.	.	8ddd 8eee-	.	.	8eee	8ggg-
.	.	.	.	.	.	.	.	.	.	.	.	.	.	.	.	.	.	[8.ddJ [8.ee-	[8.gg-J	.	.	.	.	.	.	.	.
.	.	.	.	.	.	.	.	.	.	.	.	.	.	.	.	.	.	.	.	.	.	.	[8dddJ [8eee-	.	.	8r	[8ggg-J
*v	*v	*	*	*	*	*	*	*	*	*	*	*	*v	*v	*	*	*	*	*	*	*	*	*	*	*	*	*
=2	=2	=2	=2	=2	=2	=2	=2	=2	=2	=2	=2	=2	=2	=2	=2	=2	=2	=2	=2	=2	=2	=2	=2	=2	=2
*	*	*	*	*	*	*	*	*	*	*	*	*	*8va	*	*	*	*	*	*	*	*	*	*	*	*
*^	*	*	*	*	*	*	*	*	*	*	*	*^	*	*	*	*	*	*	*	*	*	*	*	*	*
!	!	!	!	!	!	!	!	!	!	!	!	!	!	!	!	!	!	!	!	!	!	!	!	!	!LO:TX:b:t=2o	!	!
2r	2ryy	1r	.	1r	.	1r	.	1r	.	1r	.	1r	2r	2ryy	8ddddL] 8eeee-X] 8gggg-X]	2r	2r	8dd] 8ee-]	8gg-]	1r	1r	1r	8ddd] 8eee-]	1r	1eet	2.eeent	8ggg-]
.	.	.	.	.	.	.	.	.	.	.	.	.	.	.	[8ddddJ [8eeee- [8gggg-	.	.	8r	8r	.	.	.	12dddL 12eeeX	.	.	.	12ggg-XL
.	.	.	.	.	.	.	.	.	.	.	.	.	.	.	.	.	.	.	.	.	.	.	12ddd 12eee	.	.	.	12ggg-
*	*	*	*	*	*	*	*	*	*	*	*	*	*	*	*X8va	*	*	*	*	*	*	*	*	*	*	*	*
.	.	.	.	.	.	.	.	.	.	.	.	.	.	.	4r	.	.	8r	8r	.	.	.	.	.	.	.	.
.	.	.	.	.	.	.	.	.	.	.	.	.	.	.	.	.	.	.	.	.	.	.	12dddJ 12eee	.	.	.	12ggg-J
.	.	.	.	.	.	.	.	.	.	.	.	.	.	.	.	.	.	4dd 4ee-	4gg-X	.	.	.	4ddd 4eee	.	.	.	4ggg-
4r	4ryy	.	.	.	.	.	.	.	.	.	.	.	4r	4ryy	2r	4r	4r	.	.	.	.	.	.	.	.	.	.
.	.	.	.	.	.	.	.	.	.	.	.	.	.	.	.	.	.	8r	8r	.	.	.	4ddd 4eee	.	.	.	4ggg-
4B-Xu 4e-X	4C 4G-X	.	.	.	.	.	.	.	.	.	.	.	4BB-X 4E-X	4CC 4GG-X	.	4CC	4GG-X 4BB-X 4E-X	4r	4r	.	.	.	.	.	.	8eee	.
.	.	.	.	.	.	.	.	.	.	.	.	.	.	.	.	.	.	.	.	.	.	.	8r	.	.	8r	8r
*v	*v	*	*	*	*	*	*	*	*	*	*	*	*v	*v	*	*	*	*	*	*	*	*	*	*	*	*	*
*	*clefC4	*	*clefC3	*	*	*	*	*	*	*	*	*	*	*	*	*	*	*	*	*	*	*	*	*	*
=3	=3	=3	=3	=3	=3	=3	=3	=3	=3	=3	=3	=3	=3	=3	=3	=3	=3	=3	=3	=3	=3	=3	=3	=3	=3
*	*	*	*	*	*	*	*	*	*	*	*	*	*8va	*	*	*	*	*	*	*	*	*	*	*	*
!	!	!	!	!	!	!	!	!	!	!	!	!	!	!	!	!	!	!	!	!	!	!	!LO:TX:a:t=1o	!	!
1r	4b-X	sfz	4b-X	sfz	4b-X	sfz	4b-X	sfz	1r	.	1r	1r	4dddd_ 4eeee-X_ 4gggg-X_	1r	1r	8.ddL 8.ee-	8.gg-XL	1r	1r	1r	8.dddL 8.eee-	1r	1eet	2.eeent	8.ggg-XL
.	.	.	.	.	.	.	.	.	.	.	.	.	.	.	.	16ddJk 16ee-	16gg-Jk	.	.	.	16dddJk 16eee-	.	.	.	16ggg-Jk
*	*	*	*	*	*	*	*	*	*	*	*	*	*X8va	*	*	*	*	*	*	*	*	*	*	*	*
!	!LO:TX:a:i:t=molto marcato	!	!LO:TX:a:i:t=molto marcato	!	!LO:TX:a:i:t=molto marcato	!	!LO:TX:a:i:t=molto marcato	!	!	!	!	!	!	!	!	!	!	!	!	!	!	!	!	!	!
.	4r	.	4r	.	4r	.	4r	.	.	.	.	.	4r	.	.	[4dd [4ee-	[4gg-	.	.	.	[4ddd [4eee-	.	.	.	[4ggg-
.	2Bn	.	2Bn	.	2Bn	.	2Bn	.	.	.	.	.	2r	.	.	8dd] 8ee-]	8gg-]	.	.	.	8dddL] 8eee-]	.	.	.	8ggg-L]
.	.	.	.	.	.	.	.	.	.	.	.	.	.	.	.	8r	8r	.	.	.	8ddd 8eee-	.	.	.	8ggg-
.	.	.	.	.	.	.	.	.	.	.	.	.	.	.	.	16ddKL 16ee-	16gg-KL	.	.	.	8ddd 8eee-	.	.	8eee	8ggg-
.	.	.	.	.	.	.	.	.	.	.	.	.	.	.	.	8.ddJ 8.ee-	8.gg-J	.	.	.	.	.	.	.	.
.	.	.	.	.	.	.	.	.	.	.	.	.	.	.	.	.	.	.	.	.	8dddJ 8eee-	.	.	8r	8ggg-J
!!pagebreak:original
=4	=4	=4	=4	=4	=4	=4	=4	=4	=4	=4	=4	=4	=4	=4	=4	=4	=4	=4	=4	=4	=4	=4	=4	=4	=4
*^	*	*	*	*	*	*	*	*	*	*	*	*^	*	*	*	*	*	*	*	*	*	*	*	*	*
!	!	!	!	!	!	!	!	!	!	!	!	!	!	!	!	!	!	!	!	!	!	!	!	!	!LO:TX:b:t=2o	!	!
4B-X 4e-X	4C 4G-X	4r	.	4r	.	4r	.	4r	.	1r	.	1r	4BB-X 4E-X	4CC 4GG-X	2r	4CC	4GG-X 4BB-X 4E-X	4dd 4ee-	4gg-X	1r	1r	1r	4..ddd 4..eee-	1r	1eet	2.eeent	4..ggg-X
4r	4ryy	12AnL	.	12AnL	.	12AnL	.	12AnL	.	.	.	.	4r	4ryy	.	4r	4r	4r	4r	.	.	.	.	.	.	.	.
.	.	12A	.	12A	.	12A	.	12A	.	.	.	.	.	.	.	.	.	.	.	.	.	.	.	.	.	.	.
.	.	12AJ	.	12AJ	.	12AJ	.	12AJ	.	.	.	.	.	.	.	.	.	.	.	.	.	.	.	.	.	.	.
.	.	.	.	.	.	.	.	.	.	.	.	.	.	.	.	.	.	.	.	.	.	.	[16ddd [16eee-	.	.	.	[16ggg-
2r	2ryy	(8.c-XL	.	(8.c-XL	.	(8.c-XL	.	(8.c-XL	.	.	.	.	2r	2ryy	4r	2r	2r	4r	4r	.	.	.	4.ddd] 4.eee-]	.	.	.	4.ggg-]
.	.	16B-XJk	.	16B-XJk	.	16B-XJk	.	16B-XJk	.	.	.	.	.	.	.	.	.	.	.	.	.	.	.	.	.	.	.
.	.	8A)	.	8A)	.	8A)	.	8A)	.	.	.	.	.	.	8r	.	.	8r	8r	.	.	.	.	.	.	8eee	.
*	*	*	*	*	*	*	*	*	*	*	*	*	*	*	*8va	*	*	*	*	*	*	*	*	*	*	*	*
.	.	8r	.	8r	.	8r	.	8r	.	.	.	.	.	.	[8dddd [8eeee-X [8gggg-X	.	.	[8ddL [8ee-	[8gg-L	.	.	.	[8ddd [8eee-	.	.	8r	[8ggg-
=5	=5	=5	=5	=5	=5	=5	=5	=5	=5	=5	=5	=5	=5	=5	=5	=5	=5	=5	=5	=5	=5	=5	=5	=5	=5	=5	=5
!	!	!	!	!	!	!	!	!	!	!	!	!	!	!	!	!	!	!	!	!	!	!	!	!	!LO:TX:a:t=1o	!	!
2r	2ryy	4B-X	.	4B-X	.	4B-X	.	4B-X	.	1r	.	1r	2r	2ryy	8dddd] 8eeee-] 8gggg-]	2r	2r	8ddJ] 8ee-]	8gg-J]	1r	1r	1r	8ddd] 8eee-]	1r	1eet	2.eeent	8ggg-]
*	*	*	*	*	*	*	*	*	*	*	*	*	*	*	*X8va	*	*	*	*	*	*	*	*	*	*	*	*
.	.	.	.	.	.	.	.	.	.	.	.	.	.	.	8r	.	.	4r	4r	.	.	.	12dddL 12eeeX	.	.	.	12ggg-XL
.	.	.	.	.	.	.	.	.	.	.	.	.	.	.	.	.	.	.	.	.	.	.	12ddd 12eee	.	.	.	12ggg-
.	.	[2dd-X	.	[2dd-X	.	[2dd-X	.	[2dd-X	.	.	.	.	.	.	4r	.	.	.	.	.	.	.	.	.	.	.	.
.	.	.	.	.	.	.	.	.	.	.	.	.	.	.	.	.	.	.	.	.	.	.	12dddJ 12eee	.	.	.	12ggg-J
.	.	.	.	.	.	.	.	.	.	.	.	.	.	.	.	.	.	[8dd [8ee-	[8gg-X	.	.	.	[8ddd [8eee	.	.	.	[8ggg-
4r	4ryy	.	.	.	.	.	.	.	.	.	.	.	4r	4ryy	2r	4r	4r	4dd] 4ee-]	4gg-]	.	.	.	4ddd] 4eee]	.	.	.	4ggg-]
4B-X 4e-X	4C 4G-X	8dd-L]	.	8dd-L]	.	8dd-L]	.	8dd-L]	.	.	.	.	4BB-X 4E-X	4CC 4GG-X	.	4CC	4GG-X 4BB-X 4E-X	4r	4r	.	.	.	4r	.	.	8eee	4r
.	.	16r	.	16r	.	16r	.	16r	.	.	.	.	.	.	.	.	.	.	.	.	.	.	.	.	.	8r	.
.	.	16anJk	.	16anJk	.	16anJk	.	16anJk	.	.	.	.	.	.	.	.	.	.	.	.	.	.	.	.	.	.	.
*v	*v	*	*	*	*	*	*	*	*	*	*	*	*v	*v	*	*	*	*	*	*	*	*	*	*	*	*	*
=6	=6	=6	=6	=6	=6	=6	=6	=6	=6	=6	=6	=6	=6	=6	=6	=6	=6	=6	=6	=6	=6	=6	=6	=6	=6
*	*	*	*	*	*	*	*	*	*	*	*	*	*8va	*	*	*	*	*	*	*	*	*	*	*	*
!	!	!	!	!	!	!	!	!	!	!	!	!	!	!	!	!	!	!LO:TX:a:t=a2	!LO:TX:a:t=a2	!	!	!	!LO:TX:b:t=2o	!	!
1r	4dd-X	.	4dd-X	.	4dd-X	.	4dd-X	.	1r	.	1r	1r	[4dddd [4eeee-X [4gggg-X	1r	1r	8.ddL 8.ee-	8.gg-XL	1r	1r	1r	8.dddL 8.eee-	1r	1eet	2.eeent	8.ggg-XL
.	.	.	.	.	.	.	.	.	.	.	.	.	.	.	.	16ddJk 16ee-	16gg-Jk	.	.	.	16dddJk 16eee-	.	.	.	16ggg-Jk
*	*	*	*	*	*	*	*	*	*	*	*	*	*X8va	*	*	*	*	*	*	*	*	*	*	*	*
.	4cc	.	4cc	.	4cc	.	4cc	.	.	.	.	.	4r	.	.	[4dd [4ee-	[4gg-	.	.	.	[4ddd [4eee-	.	.	.	[4ggg-
.	4g-X	.	4g-X	.	4g-X	.	4g-X	.	.	.	.	.	2r	.	.	8dd] 8ee-]	8gg-]	.	.	.	8dddL] 8eee-]	.	.	.	8ggg-L]
.	.	.	.	.	.	.	.	.	.	.	.	.	.	.	.	8r	8r	.	.	.	8ddd 8eee-	.	.	.	8ggg-
.	4r	.	4r	.	4r	.	4r	.	.	.	.	.	.	.	.	16ddKL 16ee-	16gg-KL	.	.	.	8ddd 8eee-	.	.	8eee	8ggg-
.	.	.	.	.	.	.	.	.	.	.	.	.	.	.	.	8.ddJ 8.ee-	8.gg-J	.	.	.	.	.	.	.	.
.	.	.	.	.	.	.	.	.	.	.	.	.	.	.	.	.	.	.	.	.	8dddJ 8eee-	.	.	8r	8ggg-J
=7	=7	=7	=7	=7	=7	=7	=7	=7	=7	=7	=7	=7	=7	=7	=7	=7	=7	=7	=7	=7	=7	=7	=7	=7	=7
.	.	.	.	.	.	.	.	.	.	.	.	.	.	.	.	.	.	((8qqbX/L	(8qqB/L	(8qqbX/L	.	(8qqbX/L	.	.	.
!	!	!	!	!	!	!	!	!	!	!	!	!	!	!	!	!	!	!	!LO:TX:b:t=[f]	!LO:TX:b:t=[f]	!	!	!LO:TX:a:t=1o	!	!
.	.	.	.	.	.	.	.	.	.	.	.	.	.	.	.	.	.	8qqcc#X/J	8qqc#X/J	8qqcc#X/J	.	8qqcc/J	.	.	.
*	*	*	*	*	*	*	*	*	*	*	*	*	*8va	*	*	*	*	*	*	*	*	*	*	*	*
*^	*	*	*	*	*	*	*	*	*	*	*	*^	*	*	*	*	*	*	*	*	*	*	*	*	*
4r	4ryy	1r	.	1r	.	1r	.	1r	.	1r	.	1r	4r	4ryy	4dddd_ 4eeee-X_ 4gggg-X_	4r	4r	4dd 4ee-	4gg-X	2.dd^)	2.d	2.dd	4..ddd 4..eee-	2.dd	1eet	2.eeent	4..ggg-X
*v	*v	*	*	*	*	*	*	*	*	*	*	*	*v	*v	*	*	*	*	*	*	*	*	*	*	*	*	*
*	*	*	*	*	*	*	*	*	*	*	*	*	*X8va	*	*	*	*	*	*	*	*	*	*	*	*
*^	*	*	*	*	*	*	*	*	*	*	*	*^	*	*	*	*	*	*	*	*	*	*	*	*	*
4B-X 4e-X	4C 4G-X	.	.	.	.	.	.	.	.	.	.	.	4BB-X 4E-X	4CC 4GG-X	4r	4CC	4GG-X 4BB-X 4E-X	4r	4r	.	.	.	.	.	.	.	.
.	.	.	.	.	.	.	.	.	.	.	.	.	.	.	.	.	.	.	.	.	.	.	[16ddd [16eee-	.	.	.	[16ggg-
2r	2ryy	.	.	.	.	.	.	.	.	.	.	.	2r	2ryy	4r	2r	2r	4r	4r	.	.	.	4.ddd] 4.eee-]	.	.	.	4.ggg-]
.	.	.	.	.	.	.	.	.	.	.	.	.	.	.	8r	.	.	8r	8r	4dd-X)	4c#X)	4cc#X)	.	4cc#X)	.	8eee	.
*	*	*	*	*	*	*	*	*	*	*	*	*	*	*	*X8va	*	*	*	*	*	*	*	*	*	*	*	*
.	.	.	.	.	.	.	.	.	.	.	.	.	.	.	8dddd_ 8eeee-_ 8gggg-_	.	.	[8dd [8ee-	[8gg-	.	.	.	[8ddd [8eee-	.	.	8r	[8ggg-
*v	*v	*	*	*	*	*	*	*	*	*	*	*	*v	*v	*	*	*	*	*	*	*	*	*	*	*	*	*
=	=	=	=	=	=	=	=	=	=	=	=	=	=	=	=	=	=	=	=	=	=	=	=	=	=
*-	*-	*-	*-	*-	*-	*-	*-	*-	*-	*-	*-	*-	*-	*-	*-	*-	*-	*-	*-	*-	*-	*-	*-	*-	*-
!!!system-decoration: s1,s2,s3,s4,s5,s6,s7,s8,s9,s10,s11,s12{(s13,s14)}s15,s16,s17,s18,s19,s20,s21
